static/logos/customers/ware2go-wordmark.svg

<svg width="180" height="60" viewBox="0 0 180 60" fill="none" xmlns="http://www.w3.org/2000/svg">
<path d="M107.199 52.4279C107.199 50.6722 107.226 49.0515 107.199 47.4309C107.172 46.0803 106.659 45.378 105.632 45.297C104.552 45.216 103.661 45.9993 103.58 47.3228C103.498 48.9705 103.553 50.6451 103.553 52.4279C103.039 52.4549 102.688 52.4819 102.148 52.5359C102.148 50.213 102.148 48.0251 102.148 45.8372C102.148 45.351 102.148 44.8648 102.148 44.3246C102.607 44.2976 102.904 44.3516 103.282 44.3246C103.282 44.7028 103.309 45.1349 103.336 45.4861C104.633 44.0545 106.767 43.5413 108.252 45.5131C109.009 44.6217 109.819 44.0815 110.953 44.1355C112.385 44.2166 113.33 44.8648 113.411 46.2964C113.547 48.2952 113.438 50.321 113.438 52.4279C113.114 52.4549 112.79 52.4819 112.196 52.5359C112.196 51.3744 112.196 50.321 112.196 49.2676C112.196 48.5113 112.196 47.728 112.142 46.9717C112.034 45.8912 111.467 45.351 110.548 45.297C109.576 45.243 108.739 45.9183 108.577 46.9447C108.468 47.6199 108.522 48.2952 108.522 48.9705C108.522 50.0779 108.522 51.2124 108.522 52.4279C108.09 52.4279 107.712 52.4279 107.199 52.4279Z" fill="#4D4F56"/>
<path d="M74.7615 44.0546C74.2753 44.0546 73.9512 44.0546 73.6 44.0546C72.5466 41.9748 71.142 41.7587 69.4944 42.3259C68.7651 42.569 68.2789 43.0822 68.2519 43.9196C68.2249 44.7569 68.7111 45.2971 69.4404 45.5402C70.3857 45.8643 71.3581 46.0534 72.3035 46.3235C74.1943 46.8637 75.1126 47.9172 75.0316 49.4838C74.9506 51.0504 73.8161 52.2929 71.9794 52.536C71.061 52.6711 70.0886 52.644 69.1703 52.455C67.7657 52.1308 66.7663 51.2665 66.5232 49.6188C66.9284 49.5648 67.3065 49.5108 67.6576 49.4838C67.8197 49.6458 67.9278 49.7269 67.9818 49.8349C68.9272 51.3475 70.8449 51.8877 72.4386 51.0774C73.1408 50.7263 73.7081 50.1591 73.519 49.4028C73.3839 48.8355 72.8977 48.1873 72.3845 47.8901C71.7093 47.485 70.8449 47.431 70.0886 47.1879C69.4404 46.9988 68.7651 46.8097 68.1979 46.4856C66.8473 45.7023 66.3341 43.9196 67.1444 42.623C68.1168 41.0294 69.6835 40.7323 71.3851 40.8673C73.0868 41.0024 74.2753 41.8937 74.7345 43.3523C74.7615 43.5144 74.7345 43.7035 74.7615 44.0546Z" fill="#4D4F56"/>
<path d="M53.0191 41.0563C53.4243 41.0563 53.7754 41.0563 54.2887 41.0563C54.2887 41.7045 54.2887 42.3258 54.2887 42.92C54.2887 44.8648 54.3157 46.7826 54.2616 48.7274C54.2076 50.7532 52.9111 52.1847 50.9393 52.5629C48.1842 53.1301 44.9969 51.9687 45.105 47.782C45.186 45.5941 45.105 43.3792 45.105 41.0563C45.5642 41.0293 45.9153 41.0023 46.5095 40.9482C46.5095 42.2718 46.4825 43.4602 46.5095 44.6757C46.5365 46.0803 46.5095 47.4578 46.6446 48.8354C46.8066 50.429 47.9951 51.3204 49.6158 51.3744C51.2364 51.4284 52.4789 50.5371 52.722 48.9975C52.9111 47.809 52.8571 46.5935 52.8841 45.378C52.9111 44.1085 52.8841 42.866 52.9111 41.5965C52.9381 41.4885 52.9651 41.3534 53.0191 41.0563Z" fill="#4D4F56"/>
<path d="M39.2447 52.4552C38.7045 52.4822 38.2993 52.5092 37.8401 52.5362C37.435 51.4558 37.0298 50.4024 36.6246 49.3219C35.058 49.3219 33.5454 49.3219 31.9788 49.3219C31.6006 50.3754 31.2225 51.3748 30.8173 52.4552C30.3851 52.4552 29.953 52.4552 29.3857 52.4552C30.7903 48.6197 32.1949 44.8382 33.5994 41.0566C34.0856 41.0566 34.4908 41.0566 35.031 41.0566C36.4085 44.7841 37.8131 48.5386 39.2447 52.4552ZM36.1925 47.9444C35.5712 46.1887 35.004 44.6221 34.4638 43.0554C34.3557 43.0554 34.2747 43.0554 34.1667 43.0825C33.6264 44.6761 33.0592 46.2427 32.465 47.9714C33.7615 47.9444 34.8689 47.9444 36.1925 47.9444Z" fill="#4D4F56"/>
<path d="M117.354 55.1829C116.76 55.1829 116.436 55.1829 116.004 55.1829C116.004 51.5364 116.004 47.971 116.004 44.2975C116.382 44.2705 116.733 44.2705 117.084 44.2435C117.165 44.6217 117.219 44.9188 117.3 45.2429C117.435 45.1889 117.597 45.1889 117.651 45.1078C118.678 44.0274 119.92 43.8383 121.244 44.3245C122.648 44.8377 123.27 46.0262 123.432 47.4578C123.486 47.89 123.486 48.3491 123.459 48.8083C123.405 50.2939 122.891 51.5904 121.514 52.2657C120.082 52.968 118.732 52.6439 117.354 51.3474C117.354 52.7249 117.354 53.8864 117.354 55.1829ZM122.135 48.3491C122.081 47.971 122.081 47.5658 122 47.1877C121.703 46.0262 120.758 45.2699 119.704 45.2969C118.678 45.3239 117.705 46.1343 117.516 47.3227C117.408 48.025 117.408 48.7543 117.516 49.4566C117.705 50.6451 118.651 51.4554 119.704 51.4824C120.812 51.5094 121.784 50.6991 122.054 49.4836C122.081 49.1055 122.081 48.7273 122.135 48.3491Z" fill="#4D4F56"/>
<path d="M57.07 41.0567C58.7176 41.0567 60.3113 40.9216 61.8239 41.0837C63.6876 41.2998 64.7681 42.7583 64.7681 44.6761C64.7681 46.5669 63.6606 47.9984 61.8239 48.2685C60.7705 48.4306 59.69 48.4306 58.4205 48.4846C58.4205 49.7811 58.4205 51.0507 58.4205 52.4012C57.8533 52.4012 57.4751 52.4012 57.043 52.4012C57.07 48.6467 57.07 44.9462 57.07 41.0567ZM58.5016 47.1881C59.609 47.1341 60.6354 47.1881 61.6348 46.999C62.7963 46.7829 63.4175 45.7836 63.3635 44.5951C63.3095 43.4336 62.6882 42.5152 61.5808 42.3802C60.5814 42.2451 59.555 42.3532 58.5016 42.3532C58.5016 43.9738 58.5016 45.4864 58.5016 47.1881Z" fill="#4D4F56"/>
<path d="M89.5084 49.2406C89.8866 49.2677 90.2647 49.2947 90.6699 49.2947C90.1297 51.4015 88.9142 52.4009 86.6993 52.644C84.5384 52.8871 82.5126 51.9147 81.6213 50.051C80.5949 47.8631 80.5679 45.5672 81.6213 43.4063C82.5667 41.4615 84.2953 40.7052 86.4292 40.8133C88.347 40.9213 89.7785 41.7857 90.5618 43.5684C90.6699 43.8115 90.6699 44.0816 90.7509 44.4597C90.2917 44.4867 89.9136 44.5408 89.5084 44.5678C88.8602 43.0552 87.8067 42.1908 86.2131 42.0558C86.0781 42.0558 85.943 42.0288 85.8079 42.0558C84.2413 42.1908 83.1879 43.0282 82.7017 44.4867C82.0264 46.5126 82.0534 48.5114 83.458 50.24C84.4574 51.4555 85.7539 51.7256 87.1855 51.2935C87.9688 51.1044 89.0492 50.5102 89.5084 49.2406Z" fill="#4D4F56"/>
<path d="M130.616 47.5659C130.859 46.5125 130.643 45.7832 129.643 45.4051C128.617 44.9999 127.78 45.3511 126.861 46.5125C126.564 46.5125 126.213 46.5125 125.835 46.5125C125.835 46.3234 125.781 46.1884 125.808 46.0804C126.321 44.5677 127.672 43.9195 129.643 44.1626C131.156 44.3517 132.02 45.27 132.047 46.8907C132.101 48.6734 132.047 50.4831 132.047 52.3739C131.642 52.4279 131.318 52.4549 130.967 52.4819C130.832 52.1308 130.724 51.8336 130.616 51.5095C130.427 51.6176 130.13 51.9687 129.995 52.0497C129.427 52.3198 129.049 52.4549 128.455 52.5359C126.807 52.779 125.565 51.8877 125.376 50.4561C125.187 49.1596 126.051 48.1602 127.699 47.8631C128.644 47.728 129.589 47.701 130.616 47.5659ZM130.616 48.6734C129.643 48.7544 128.752 48.8084 127.888 48.9435C127.185 49.0515 126.726 49.5107 126.78 50.24C126.834 51.0233 127.375 51.4015 128.131 51.4825C129.697 51.6716 130.751 50.6182 130.616 48.6734Z" fill="#4D4F56"/>
<path d="M100.231 48.4032C100.231 50.8071 98.9885 52.4008 96.9356 52.5898C95.315 52.7519 93.9375 52.2927 93.1812 50.8071C92.2898 49.0514 92.2898 47.2417 93.4242 45.567C94.3696 44.1625 95.8282 43.9464 97.3948 44.2165C99.1775 44.5406 100.231 46.1613 100.231 48.4032ZM98.6913 47.0796C98.3942 45.9722 97.4759 45.2969 96.4495 45.2699C95.423 45.2699 94.5317 45.9452 94.2076 47.0796C93.8564 48.1871 93.9104 49.3215 94.5047 50.3479C95.342 51.8065 97.4218 51.8876 98.3132 50.456C98.3132 50.456 99.2045 48.9704 98.6913 47.0796Z" fill="#4D4F56"/>
<path d="M141.446 52.4551C140.96 52.4551 140.636 52.4551 140.123 52.4551C140.123 51.1586 140.123 49.9161 140.123 48.6466C140.123 48.1064 140.123 47.5662 140.042 47.0259C139.853 45.8375 139.231 45.2702 138.205 45.2702C137.152 45.2432 136.26 45.9185 136.098 46.9719C135.936 48.0253 135.963 49.1058 135.936 50.1862C135.909 50.8885 135.936 51.6178 135.936 52.4011C135.477 52.4281 135.126 52.4551 134.694 52.5091C134.694 49.754 134.694 47.08 134.694 44.3249C135.018 44.2979 135.342 44.2438 135.72 44.2168C135.801 44.595 135.882 44.8651 135.963 45.2162C136.098 45.1622 136.233 45.1352 136.314 45.0542C137.098 44.2168 138.07 44.0548 139.15 44.1898C140.528 44.3789 141.338 45.2973 141.446 47.053C141.5 48.8087 141.446 50.5373 141.446 52.4551Z" fill="#4D4F56"/>
<path d="M143.094 44.27C143.634 44.27 144.012 44.27 144.498 44.27C145.228 46.4309 145.957 48.5917 146.686 50.7256C146.767 50.7526 146.875 50.7526 146.956 50.7796C147.686 48.6188 148.442 46.4309 149.198 44.27C149.657 44.27 150.036 44.27 150.576 44.27C150.144 45.4315 149.765 46.4849 149.387 47.5113C148.631 49.5641 147.902 51.644 147.091 53.6968C146.47 55.2094 145.849 55.5335 144.093 55.5065C144.039 55.2364 143.985 54.9663 143.958 54.6962C145.606 54.129 145.606 54.129 146.119 52.4813C145.147 49.8342 144.147 47.1062 143.094 44.27Z" fill="#4D4F56"/>
<path d="M0 4.10791C2.16072 4.10791 4.07836 4.10791 6.10403 4.10791C7.42748 10.0499 8.72391 15.9379 10.0203 21.8528C10.1284 21.8528 10.2364 21.8798 10.3715 21.8798C12.1 15.9649 13.8556 10.0229 15.5842 4.10791C17.1507 4.10791 18.5822 4.10791 20.1217 4.10791C21.8503 10.0229 23.5789 15.9108 25.3074 21.7988C25.4425 21.8258 25.5505 21.8258 25.6856 21.8528C26.982 15.9649 28.3054 10.0769 29.6019 4.13492C31.5735 4.13492 33.4371 4.13492 35.4628 4.13492C33.032 13.8852 30.6552 23.5274 28.2244 33.2506C26.3878 33.2506 24.6052 33.2506 22.7416 33.2506C21.1751 26.9305 19.5815 20.6644 18.015 14.3713C17.907 14.3713 17.7989 14.3713 17.6909 14.3713C16.1244 20.6644 14.5579 26.9305 12.9643 33.2776C11.0737 33.2776 9.23708 33.2776 7.23841 33.2776C4.83461 23.6084 2.43081 13.9392 0 4.10791Z" fill="#4D4F55"/>
<path d="M71.9789 22.258C70.3854 22.258 68.8999 22.258 67.2253 22.258C67.2253 25.9042 67.2253 29.5235 67.2253 33.2237C65.2536 33.2237 63.471 33.2237 61.6074 33.2237C61.6074 23.5545 61.6074 13.9122 61.6074 4.24303C61.6884 4.18901 61.8235 4.08097 61.9315 4.08097C67.0092 4.10798 72.0869 3.99994 77.1646 4.18901C80.0276 4.29704 81.8102 6.32272 81.9722 9.21268C82.0803 11.2654 81.9722 13.3451 82.0532 15.4248C82.1883 18.5038 81.432 21.0696 78.0829 22.258C79.6765 25.9042 81.216 29.4694 82.8365 33.1967C80.7568 33.1967 78.8122 33.1967 76.7325 33.1967C75.1659 29.6315 73.5994 25.9853 71.9789 22.258ZM67.2793 17.0993C69.9532 17.0993 72.4921 17.1803 75.0309 17.0453C75.4901 17.0183 76.2193 16.181 76.2733 15.6678C76.4354 14.0743 76.4084 12.4268 76.2733 10.8332C76.2463 10.3741 75.5711 9.61782 75.193 9.59081C72.5731 9.48277 69.9532 9.53679 67.2793 9.53679C67.2793 12.1297 67.2793 14.5605 67.2793 17.0993Z" fill="#4D4F55"/>
<path d="M154.627 13.3182C152.709 13.3182 150.953 13.3182 149.036 13.3182C149.036 12.5079 149.009 11.8057 149.036 11.1035C149.09 9.96908 148.495 9.4289 147.415 9.40189C145.254 9.37488 143.094 9.37488 140.933 9.40189C139.907 9.4289 139.42 9.99609 139.42 11.0494C139.447 16.1271 139.42 21.2318 139.42 26.3095C139.42 27.4979 139.961 28.0111 141.149 28.0111C143.229 27.9841 145.281 27.9841 147.361 28.0111C148.468 28.0111 149.036 27.4979 149.036 26.3906C149.036 25.0401 149.036 23.7167 149.036 22.2312C147.226 22.2312 145.525 22.2312 143.742 22.2312C143.742 20.5026 143.742 18.9091 143.742 17.2075C147.361 17.2075 150.926 17.2075 154.518 17.2075C154.6 17.4236 154.681 17.5856 154.681 17.7747C154.681 21.3399 154.762 24.878 154.6 28.4432C154.464 31.3062 152.358 33.2508 149.495 33.3319C146.2 33.4129 142.932 33.3859 139.637 33.3589C135.909 33.3319 133.776 31.3872 133.695 27.687C133.587 21.745 133.587 15.803 133.695 9.86104C133.749 6.34987 135.585 4.37821 139.069 4.18915C142.689 4.00009 146.362 4.08112 149.981 4.27018C152.574 4.40522 154.383 6.34987 154.6 8.91573C154.708 10.2662 154.627 11.7247 154.627 13.3182Z" fill="#4D4F55"/>
<path d="M179.988 18.747C179.988 21.718 180.015 24.689 179.988 27.66C179.961 31.1711 177.854 33.2778 174.343 33.3318C171.156 33.3859 167.969 33.3588 164.755 33.3318C161.001 33.3048 158.867 31.3332 158.813 27.5249C158.705 21.6369 158.705 15.749 158.813 9.86102C158.867 6.26883 160.704 4.32418 164.296 4.13512C167.888 3.94605 171.48 4.00007 175.072 4.21614C178.097 4.3782 179.934 6.53892 179.961 9.59093C180.015 12.643 179.988 15.695 179.988 18.747ZM164.539 18.747C164.539 21.2588 164.539 23.7707 164.539 26.3095C164.539 27.4979 165.079 28.0111 166.267 28.0111C168.374 27.9841 170.508 27.9841 172.615 28.0111C173.83 28.0381 174.37 27.4169 174.37 26.2825C174.37 21.2588 174.37 16.2081 174.37 11.1845C174.37 10.0501 173.83 9.40187 172.669 9.40187C170.562 9.37486 168.455 9.40187 166.321 9.40187C165.025 9.40187 164.512 10.0501 164.539 11.3465C164.566 13.8043 164.539 16.2892 164.539 18.747Z" fill="#4D4F55"/>
<path d="M115.247 27.9297C118.407 27.9297 121.324 27.9297 124.376 27.9297C124.43 27.0655 124.457 26.2282 124.511 25.3099C126.267 25.3099 127.942 25.3099 129.724 25.3099C129.724 27.9568 129.724 30.5496 129.724 33.2235C123.026 33.2235 116.382 33.2235 109.575 33.2235C109.575 31.1978 109.575 29.1722 109.575 27.1735C109.575 26.6333 109.602 26.0931 109.575 25.553C109.359 21.9338 109.738 19.9081 114.923 17.9904C117.408 17.0721 119.893 16.1808 122.432 15.3706C123.647 14.9654 124.16 14.2902 124.16 13.0208C124.16 9.61765 124.052 9.45559 120.622 9.45559C119.677 9.45559 118.732 9.45559 117.786 9.45559C115.923 9.4826 115.49 9.88774 115.463 11.7514C115.463 12.0755 115.436 12.3726 115.409 12.8047C113.627 12.8047 111.844 12.8047 109.792 12.8047C109.954 11.1302 109.9 9.50961 110.332 7.99711C110.953 5.78237 112.573 4.32388 114.896 4.21585C118.218 4.05379 121.54 4.02678 124.863 4.21585C127.644 4.3779 129.67 6.7817 129.751 9.59064C129.805 11.2112 129.697 12.8317 129.778 14.4523C129.886 16.802 128.833 18.5036 126.807 19.4759C124.836 20.4212 122.729 21.1235 120.676 21.9067C119.461 22.3659 118.245 22.825 116.976 23.1762C115.679 23.5543 115.139 24.3375 115.247 25.661C115.301 26.3632 115.247 27.0925 115.247 27.9297Z" fill="#4D4F55"/>
<path d="M105.686 4.16211C105.686 5.97171 105.686 7.61926 105.686 9.45587C101.311 9.45587 96.9623 9.45587 92.5598 9.45587C92.5598 12.0487 92.5598 14.4525 92.5598 17.0184C96.098 17.0184 99.5821 17.0184 103.174 17.0184C103.174 18.774 103.174 20.3945 103.174 22.1501C99.6902 22.1501 96.152 22.1501 92.5598 22.1501C92.5598 24.1488 92.5598 25.9584 92.5598 27.93C96.9352 27.93 101.23 27.93 105.632 27.93C105.632 29.7396 105.632 31.4142 105.632 33.2238C99.4201 33.2238 93.262 33.2238 86.9419 33.2238C86.9419 23.5816 86.9419 13.9394 86.9419 4.16211C93.127 4.16211 99.339 4.16211 105.686 4.16211Z" fill="#4D4F55"/>
<path d="M58.4475 33.2237C56.3408 33.2237 54.3692 33.2237 52.3435 33.2237C51.7763 31.3601 51.2361 29.5235 50.6959 27.7139C47.2658 27.7139 43.9437 27.7139 40.5135 27.7139C39.9464 29.5505 39.4062 31.3331 38.839 33.1967C36.9484 33.1967 35.0847 33.1967 32.978 33.1967C36.1381 23.4195 39.2441 13.6962 42.3502 4C44.6189 4 46.7796 4 49.0754 4C52.1814 13.6962 55.3145 23.4195 58.4475 33.2237ZM42.1341 22.2041C44.5379 22.2041 46.7526 22.2041 49.1564 22.2041C48.022 18.2608 46.9147 14.4255 45.8343 10.6172C45.7263 10.6442 45.6182 10.6442 45.5102 10.6712C44.3758 14.4525 43.2685 18.2608 42.1341 22.2041Z" fill="#4D4F55"/>
</svg>

<svg xmlns="http://www.w3.org/2000/svg" width="180" height="60" fill="none" viewBox="0 0 180 60"><path fill="#4d4f56" d="M107.199 52.428c0-1.756.027-3.376 0-4.997-.027-1.35-.54-2.053-1.567-2.134-1.08-.081-1.971.702-2.052 2.026-.082 1.648-.027 3.322-.027 5.105-.514.027-.865.054-1.405.108v-8.211c.459-.027.756.027 1.134 0 0 .378.027.81.054 1.161 1.297-1.431 3.431-1.945 4.916.027.757-.891 1.567-1.431 2.701-1.377 1.432.08 2.377.729 2.458 2.16.136 2 .027 4.025.027 6.132-.324.027-.648.054-1.242.108v-3.268c0-.757 0-1.54-.054-2.296-.108-1.08-.675-1.621-1.594-1.675-.972-.054-1.809.621-1.971 1.648-.109.675-.055 1.35-.055 2.026v3.457zM74.762 44.055H73.6c-1.053-2.08-2.458-2.296-4.106-1.73-.729.244-1.215.757-1.242 1.595-.027.837.46 1.377 1.188 1.62.946.324 1.918.513 2.864.784 1.89.54 2.809 1.593 2.728 3.16-.081 1.566-1.216 2.809-3.053 3.052a8.2 8.2 0 0 1-2.809-.081c-1.404-.324-2.404-1.188-2.647-2.836.405-.054.784-.108 1.135-.135.162.162.27.243.324.35a3.41 3.41 0 0 0 4.457 1.243c.702-.35 1.27-.918 1.08-1.674-.135-.567-.621-1.216-1.135-1.513-.675-.405-1.54-.459-2.295-.702-.649-.19-1.324-.378-1.891-.702-1.35-.784-1.864-2.566-1.054-3.863.973-1.594 2.54-1.89 4.241-1.756 1.702.135 2.89 1.027 3.35 2.485.026.162 0 .352.026.703M53.02 41.056h1.269v1.864c0 1.945.027 3.863-.027 5.807-.054 2.026-1.35 3.458-3.323 3.836-2.755.567-5.942-.594-5.834-4.781.081-2.188 0-4.403 0-6.726.46-.027.81-.054 1.405-.108 0 1.324-.027 2.512 0 3.728.026 1.404 0 2.782.135 4.16.162 1.593 1.35 2.484 2.97 2.538s2.864-.837 3.107-2.376c.19-1.189.135-2.404.162-3.62.027-1.27 0-2.512.027-3.782.027-.107.054-.243.108-.54M39.245 52.455c-.54.027-.946.054-1.405.081-.405-1.08-.81-2.134-1.215-3.214h-4.646c-.378 1.053-.756 2.053-1.162 3.133h-1.431c1.404-3.835 2.809-7.617 4.213-11.398h1.432c1.377 3.727 2.782 7.482 4.214 11.398m-3.052-4.51c-.622-1.756-1.189-3.323-1.73-4.89-.107 0-.188 0-.296.028-.54 1.593-1.108 3.16-1.702 4.888 1.296-.027 2.404-.027 3.727-.027M117.354 55.183h-1.35V44.298c.378-.028.729-.028 1.08-.055.081.379.135.676.216 1 .135-.054.297-.054.351-.135 1.027-1.08 2.269-1.27 3.593-.783 1.404.513 2.026 1.701 2.188 3.133.054.432.054.891.027 1.35-.054 1.486-.568 2.782-1.945 3.458-1.432.702-2.782.378-4.16-.919zm4.781-6.834c-.054-.378-.054-.783-.135-1.161-.297-1.162-1.242-1.918-2.296-1.891-1.026.027-1.999.837-2.188 2.026a7 7 0 0 0 0 2.134c.189 1.188 1.135 1.998 2.188 2.025 1.108.027 2.08-.783 2.35-1.998.027-.379.027-.757.081-1.135M57.07 41.057c1.648 0 3.241-.135 4.754.027 1.864.216 2.944 1.674 2.944 3.592 0 1.89-1.107 3.322-2.944 3.593-1.053.162-2.134.162-3.404.216V52.4h-1.377c.027-3.754.027-7.455.027-11.344m1.432 6.131c1.107-.054 2.133 0 3.133-.189 1.161-.216 1.782-1.215 1.729-2.404-.054-1.161-.676-2.08-1.783-2.215-1-.135-2.026-.027-3.08-.027zM89.508 49.24c.379.028.757.055 1.162.055-.54 2.106-1.756 3.106-3.97 3.349-2.162.243-4.187-.73-5.079-2.593-1.026-2.188-1.053-4.484 0-6.645.946-1.944 2.674-2.7 4.808-2.593 1.918.108 3.35.973 4.133 2.755.108.244.108.514.189.892-.46.027-.837.08-1.243.108-.648-1.513-1.701-2.377-3.295-2.512-.135 0-.27-.027-.405 0-1.567.135-2.62.972-3.106 2.43-.676 2.027-.649 4.025.756 5.754 1 1.215 2.296 1.486 3.728 1.053.783-.189 1.863-.783 2.322-2.052M130.616 47.566c.243-1.053.027-1.783-.973-2.16-1.026-.406-1.863-.055-2.782 1.107h-1.026c0-.19-.054-.325-.027-.433.513-1.512 1.864-2.16 3.835-1.917 1.513.189 2.377 1.107 2.404 2.728.054 1.782 0 3.592 0 5.483-.405.054-.729.08-1.08.108a22 22 0 0 1-.351-.972c-.189.108-.486.459-.621.54-.568.27-.946.405-1.54.486-1.648.243-2.89-.648-3.079-2.08-.189-1.296.675-2.296 2.323-2.593.945-.135 1.89-.162 2.917-.297m0 1.107c-.973.081-1.864.135-2.728.27-.703.108-1.162.568-1.108 1.297.054.783.595 1.161 1.351 1.242 1.566.19 2.62-.864 2.485-2.809M100.231 48.403c0 2.404-1.242 3.998-3.295 4.187-1.621.162-2.999-.297-3.755-1.783-.891-1.756-.891-3.565.243-5.24.946-1.404 2.404-1.62 3.97-1.35 1.783.324 2.837 1.944 2.837 4.186m-1.54-1.323c-.297-1.108-1.215-1.783-2.242-1.81-1.026 0-1.917.675-2.241 1.81-.352 1.107-.298 2.242.297 3.268.837 1.459 2.917 1.54 3.808.108 0 0 .891-1.486.378-3.376M141.446 52.455h-1.323v-3.808c0-.54 0-1.08-.081-1.621-.189-1.189-.811-1.756-1.837-1.756-1.053-.027-1.945.648-2.107 1.702s-.135 2.134-.162 3.214c-.027.703 0 1.432 0 2.215-.459.027-.81.054-1.242.108v-8.184c.324-.027.648-.081 1.026-.108.081.378.162.648.243 1 .135-.055.27-.082.351-.163.784-.837 1.756-1 2.836-.864 1.378.189 2.188 1.107 2.296 2.863.054 1.756 0 3.484 0 5.402M143.094 44.27h1.404c.73 2.16 1.459 4.322 2.188 6.456.081.027.189.027.27.054.73-2.161 1.486-4.35 2.242-6.51h1.378c-.432 1.161-.811 2.215-1.189 3.241-.756 2.053-1.485 4.133-2.296 6.186-.621 1.512-1.242 1.836-2.998 1.81a9 9 0 0 1-.135-.81c1.648-.568 1.648-.568 2.161-2.216-.972-2.647-1.972-5.375-3.025-8.211"/><path fill="#4d4f55" d="M0 4.108h6.104c1.323 5.942 2.62 11.83 3.916 17.745.108 0 .216.027.351.027 1.729-5.915 3.485-11.857 5.213-17.772h4.538c1.728 5.915 3.457 11.803 5.185 17.69.136.028.244.028.379.055 1.296-5.888 2.62-11.776 3.916-17.718h5.86c-2.43 9.75-4.807 19.392-7.238 29.116h-5.482c-1.567-6.32-3.16-12.587-4.727-18.88h-.324a9595 9595 0 0 1-4.727 18.907H7.238C4.835 23.608 2.431 13.939 0 4.108M71.979 22.258h-4.754v10.966h-5.618V4.243c.081-.054.217-.162.325-.162 5.077.027 10.155-.081 15.233.108 2.863.108 4.645 2.134 4.807 5.024.108 2.052 0 4.132.081 6.212.135 3.079-.621 5.645-3.97 6.833 1.594 3.646 3.133 7.211 4.754 10.939h-6.105c-1.566-3.566-3.133-7.212-4.753-10.939m-4.7-5.159c2.674 0 5.213.081 7.752-.054.46-.027 1.188-.864 1.242-1.377.162-1.594.135-3.241 0-4.835-.027-.459-.702-1.215-1.08-1.242-2.62-.108-5.24-.054-7.914-.054zM154.627 13.318h-5.591c0-.81-.027-1.512 0-2.214.054-1.135-.541-1.675-1.621-1.702a259 259 0 0 0-6.482 0c-1.026.027-1.513.594-1.513 1.647.027 5.078 0 10.183 0 15.26 0 1.189.541 1.702 1.729 1.702 2.08-.027 4.132-.027 6.212 0 1.107 0 1.675-.513 1.675-1.62v-4.16h-5.294v-5.024h10.776c.082.217.163.379.163.568 0 3.565.081 7.103-.081 10.668-.136 2.863-2.242 4.808-5.105 4.889-3.295.08-6.563.054-9.858.027-3.728-.027-5.861-1.972-5.942-5.672a490 490 0 0 1 0-17.826c.054-3.511 1.89-5.483 5.374-5.672 3.62-.189 7.293-.108 10.912.081 2.593.135 4.402 2.08 4.619 4.646.108 1.35.027 2.809.027 4.402M179.988 18.747c0 2.971.027 5.942 0 8.913-.027 3.511-2.134 5.618-5.645 5.672-3.187.054-6.374.027-9.588 0-3.754-.027-5.888-1.999-5.942-5.807a482 482 0 0 1 0-17.664c.054-3.592 1.891-5.537 5.483-5.726s7.184-.135 10.776.081c3.025.162 4.862 2.323 4.889 5.375.054 3.052.027 6.104.027 9.156m-15.449 0v7.563c0 1.188.54 1.701 1.728 1.701 2.107-.027 4.241-.027 6.348 0 1.215.027 1.755-.594 1.755-1.729V11.186c0-1.135-.54-1.783-1.701-1.783-2.107-.027-4.214 0-6.348 0-1.296 0-1.809.648-1.782 1.945.027 2.457 0 4.942 0 7.4M115.247 27.93h9.129c.054-.864.081-1.702.135-2.62h5.213v7.914h-20.149v-6.05c0-.54.027-1.08 0-1.621-.216-3.62.163-5.645 5.348-7.563 2.485-.918 4.97-1.81 7.509-2.62 1.215-.405 1.728-1.08 1.728-2.35 0-3.402-.108-3.564-3.538-3.564h-2.836c-1.863.027-2.296.432-2.323 2.295 0 .325-.027.622-.054 1.054h-5.617c.162-1.675.108-3.295.54-4.808.621-2.215 2.241-3.673 4.564-3.781 3.322-.162 6.644-.19 9.967 0 2.781.162 4.807 2.566 4.888 5.375.054 1.62-.054 3.24.027 4.861.108 2.35-.945 4.052-2.971 5.024-1.971.945-4.078 1.648-6.131 2.43-1.215.46-2.431.919-3.7 1.27-1.297.378-1.837 1.162-1.729 2.485.054.702 0 1.431 0 2.269M105.686 4.162v5.294H92.56v7.562h10.614v5.132H92.56v5.78h13.072v5.294h-18.69V4.162zM58.448 33.224h-6.105c-.567-1.864-1.107-3.7-1.647-5.51H40.514c-.568 1.837-1.108 3.62-1.675 5.483h-5.861c3.16-9.778 6.266-19.5 9.372-29.197h6.725c3.106 9.696 6.24 19.42 9.372 29.224m-16.314-11.02h7.022c-1.134-3.943-2.241-7.779-3.322-11.587-.108.027-.216.027-.324.054-1.134 3.782-2.241 7.59-3.376 11.533"/></svg>
